X: 1
T: The Dusty Windowsills
R: jig
M: 6/8
L: 1/8
K: Ador
|:A2B cBA|eAB cBA|GAG FGG|EGG EFG|
A2B cBA|e2d efg|age dBG|ABA A3:|
a3 age|dBd g3|gag gfe|dBA GAG|
EGG DGG|EFG ABc|Bee dBG|ABA A3:|
A2A gAf|A2A gAf|G2G eGd|G2G edB|
A2A gAf|A2d efg|age dBG|ABA A3:|


Tune 29	Setting 22080

